X: 1
T: Merry Blacksmith, The
Z: Jeremy
S: https://thesession.org/tunes/72#setting72
R: reel
M: 4/4
L: 1/8
K: Dmaj
|:d2dA BAFA|ABdA BAFA|ABde fded|Beed egfe|
d3A BAFA-|ABdA BAFA-|ABde fdec|dBAF D4:|
|:a2ag f2fe|d2dA BAFA-|ABde fded|Beed egfg|
abag fgfe|dcdA BAFA|ABde fdec|dBAF D4:|

